svg/content_save_cog_outline.svg

<svg xmlns="http://www.w3.org/2000/svg" viewBox="0 0 24 24"><path d="M11.1 19c.1.7.3 1.4.6 2H5c-1.1 0-2-.9-2-2V5c0-1.1.9-2 2-2h12l4 4v4.7c-.6-.3-1.3-.5-2-.6V7.8L16.2 5H5v14zm.9-7c-1.7 0-3 1.3-3 3 0 1.3.8 2.4 2 2.8.1-2.2 1.1-4.1 2.7-5.3-.5-.3-1.1-.5-1.7-.5m3-2V6H6v4zm7.8 9.6-1 1.7c-.1.1-.2.1-.3.1l-1.2-.4c-.3.2-.5.3-.8.5l-.2 1.3c0 .1-.1.2-.2.2h-2c-.1 0-.2-.1-.3-.2l-.2-1.3c-.3-.1-.6-.3-.8-.5l-1.2.5c-.1 0-.2 0-.3-.1l-1-1.7c-.1-.1 0-.2.1-.3l1.1-.8v-1l-1.1-.8c-.1-.1-.1-.2-.1-.3l1-1.7c.1-.1.2-.1.3-.1l1.2.5c.3-.2.5-.3.8-.5l.2-1.3c0-.1.1-.2.3-.2h2c.1 0 .2.1.2.2l.2 1.3c.3.1.6.3.9.5l1.2-.5c.1 0 .3 0 .3.1l1 1.7c.1.1 0 .2-.1.3l-1.1.8v1l1.1.8c.1 0 .1.1 0 .2M19.5 18c0-.8-.7-1.5-1.5-1.5s-1.5.7-1.5 1.5.7 1.5 1.5 1.5 1.5-.7 1.5-1.5"/></svg>

<?xml version="1.0" encoding="UTF-8"?><!DOCTYPE svg PUBLIC "-//W3C//DTD SVG 1.1//EN" "http://www.w3.org/Graphics/SVG/1.1/DTD/svg11.dtd"><svg xmlns="http://www.w3.org/2000/svg" xmlns:xlink="http://www.w3.org/1999/xlink" version="1.1" id="mdi-content-save-cog-outline" width="24" height="24" viewBox="0 0 24 24"><path d="M11.1 19C11.2 19.7 11.4 20.4 11.7 21H5C3.9 21 3 20.1 3 19V5C3 3.9 3.9 3 5 3H17L21 7V11.7C20.4 11.4 19.7 11.2 19 11.1V7.8L16.2 5H5V19H11.1M12 12C10.3 12 9 13.3 9 15C9 16.3 9.8 17.4 11 17.8C11.1 15.6 12.1 13.7 13.7 12.5C13.2 12.2 12.6 12 12 12M15 10V6H6V10H15M22.8 19.6L21.8 21.3C21.7 21.4 21.6 21.4 21.5 21.4L20.3 21C20 21.2 19.8 21.3 19.5 21.5L19.3 22.8C19.3 22.9 19.2 23 19.1 23H17.1C17 23 16.9 22.9 16.8 22.8L16.6 21.5C16.3 21.4 16 21.2 15.8 21L14.6 21.5C14.5 21.5 14.4 21.5 14.3 21.4L13.3 19.7C13.2 19.6 13.3 19.5 13.4 19.4L14.5 18.6V17.6L13.4 16.8C13.3 16.7 13.3 16.6 13.3 16.5L14.3 14.8C14.4 14.7 14.5 14.7 14.6 14.7L15.8 15.2C16.1 15 16.3 14.9 16.6 14.7L16.8 13.4C16.8 13.3 16.9 13.2 17.1 13.2H19.1C19.2 13.2 19.3 13.3 19.3 13.4L19.5 14.7C19.8 14.8 20.1 15 20.4 15.2L21.6 14.7C21.7 14.7 21.9 14.7 21.9 14.8L22.9 16.5C23 16.6 22.9 16.7 22.8 16.8L21.7 17.6V18.6L22.8 19.4C22.9 19.4 22.9 19.5 22.8 19.6M19.5 18C19.5 17.2 18.8 16.5 18 16.5S16.5 17.2 16.5 18 17.2 19.5 18 19.5C18.8 19.5 19.5 18.8 19.5 18Z" /></svg>
